Newaita-dark/.places-darknight/64/folder-wifi.svg

<?xml version="1.0" encoding="UTF-8"?>
<svg xmlns="http://www.w3.org/2000/svg" xmlns:xlink="http://www.w3.org/1999/xlink" width="64px" height="64px" viewBox="0 0 64 64" version="1.1">
<defs>
<linearGradient id="linear0" gradientUnits="userSpaceOnUse" x1="254" y1="233.5" x2="254" y2="254.666672" gradientTransform="matrix(0.125012,0,0,0.125012,-0.00000763012,26.877574)">
<stop offset="0" style="stop-color:rgb(0%,0%,0%);stop-opacity:0.27451;"/>
<stop offset="1" style="stop-color:rgb(0%,0%,0%);stop-opacity:0;"/>
</linearGradient>
<radialGradient id="radial0" gradientUnits="userSpaceOnUse" cx="450.908936" cy="189.579361" fx="450.908936" fy="189.579361" r="21.166656" gradientTransform="matrix(0.000000348341,-0.156265,-0.281277,-0.000000203077,108.230425,127.190669)">
<stop offset="0" style="stop-color:rgb(0%,0%,0%);stop-opacity:0.313726;"/>
<stop offset="0.222222" style="stop-color:rgb(0%,0%,0%);stop-opacity:0.27451;"/>
<stop offset="1" style="stop-color:rgb(0%,0%,0%);stop-opacity:0;"/>
</radialGradient>
<radialGradient id="radial1" gradientUnits="userSpaceOnUse" cx="450.908936" cy="189.579361" fx="450.908936" fy="189.579361" r="21.166656" gradientTransform="matrix(-0.000000348341,0.156265,0.281277,0.000000203077,-44.724356,-15.054954)">
<stop offset="0" style="stop-color:rgb(0%,0%,0%);stop-opacity:0.313726;"/>
<stop offset="0.222222" style="stop-color:rgb(0%,0%,0%);stop-opacity:0.27451;"/>
<stop offset="1" style="stop-color:rgb(0%,0%,0%);stop-opacity:0;"/>
</radialGradient>
<radialGradient id="radial2" gradientUnits="userSpaceOnUse" cx="450.908936" cy="189.579361" fx="450.908936" fy="189.579361" r="21.166656" gradientTransform="matrix(-0.000000348341,-0.156265,0.281277,-0.000000203077,-44.724356,127.190669)">
<stop offset="0" style="stop-color:rgb(0%,0%,0%);stop-opacity:0.313726;"/>
<stop offset="0.222222" style="stop-color:rgb(0%,0%,0%);stop-opacity:0.27451;"/>
<stop offset="1" style="stop-color:rgb(0%,0%,0%);stop-opacity:0;"/>
</radialGradient>
<radialGradient id="radial3" gradientUnits="userSpaceOnUse" cx="450.908936" cy="189.579361" fx="450.908936" fy="189.579361" r="21.166656" gradientTransform="matrix(0.000000348341,0.156265,-0.281277,0.000000203077,108.230422,-15.054955)">
<stop offset="0" style="stop-color:rgb(0%,0%,0%);stop-opacity:0.313726;"/>
<stop offset="0.222222" style="stop-color:rgb(0%,0%,0%);stop-opacity:0.27451;"/>
<stop offset="1" style="stop-color:rgb(0%,0%,0%);stop-opacity:0;"/>
</radialGradient>
<linearGradient id="linear1" gradientUnits="userSpaceOnUse" x1="254" y1="-147.5" x2="254" y2="-31.083334" gradientTransform="matrix(0.125012,0,0,0.125012,0.00000249951,26.877563)">
<stop offset="0" style="stop-color:rgb(64.313728%,64.313728%,64.313728%);stop-opacity:0;"/>
<stop offset="1" style="stop-color:rgb(100%,100%,100%);stop-opacity:0.196078;"/>
</linearGradient>
<linearGradient id="linear2" gradientUnits="userSpaceOnUse" x1="254" y1="233.5" x2="254" y2="-105.166656" gradientTransform="matrix(0.125012,0,0,0.125012,-0.00000362479,26.877566)">
<stop offset="0" style="stop-color:rgb(34.509805%,34.509805%,34.509805%);stop-opacity:0;"/>
<stop offset="1" style="stop-color:rgb(98.039216%,98.039216%,98.039216%);stop-opacity:0.196078;"/>
</linearGradient>
</defs>
<g id="surface1">
<path style=" stroke:none;fill-rule:nonzero;fill:url(#linear0);" d="M 7.9375 56.066406 L 55.566406 56.066406 L 55.566406 58.714844 L 7.9375 58.714844 Z M 7.9375 56.066406 "/>
<path style=" stroke:none;fill-rule:nonzero;fill:url(#radial0);" d="M 55.566406 56.066406 L 60.859375 56.066406 L 60.859375 53.421875 L 55.566406 53.421875 Z M 55.566406 56.066406 "/>
<path style=" stroke:none;fill-rule:nonzero;fill:url(#radial1);" d="M 7.9375 56.066406 L 2.644531 56.066406 L 2.644531 58.714844 L 7.9375 58.714844 Z M 7.9375 56.066406 "/>
<path style=" stroke:none;fill-rule:nonzero;fill:url(#radial2);" d="M 7.9375 56.066406 L 2.644531 56.066406 L 2.644531 53.421875 L 7.9375 53.421875 Z M 7.9375 56.066406 "/>
<path style=" stroke:none;fill-rule:nonzero;fill:url(#radial3);" d="M 55.566406 56.066406 L 60.859375 56.066406 L 60.859375 58.714844 L 55.566406 58.714844 Z M 55.566406 56.066406 "/>
<path style=" stroke:none;fill-rule:nonzero;fill:rgb(38.039216%,38.039216%,38.039216%);fill-opacity:1;" d="M 14.554688 8.4375 L 57.550781 8.4375 C 59.015625 8.4375 60.199219 9.621094 60.199219 11.085938 L 60.199219 21.007812 C 60.199219 22.46875 59.015625 23.652344 57.550781 23.652344 L 14.554688 23.652344 C 13.09375 23.652344 11.90625 22.46875 11.90625 21.007812 L 11.90625 11.085938 C 11.90625 9.621094 13.09375 8.4375 14.554688 8.4375 Z M 14.554688 8.4375 "/>
<path style=" stroke:none;fill-rule:nonzero;fill:url(#linear1);" d="M 14.554688 8.4375 L 57.550781 8.4375 C 59.015625 8.4375 60.199219 9.621094 60.199219 11.085938 L 60.199219 21.007812 C 60.199219 22.46875 59.015625 23.652344 57.550781 23.652344 L 14.554688 23.652344 C 13.09375 23.652344 11.90625 22.46875 11.90625 21.007812 L 11.90625 11.085938 C 11.90625 9.621094 13.09375 8.4375 14.554688 8.4375 Z M 14.554688 8.4375 "/>
<path style=" stroke:none;fill-rule:nonzero;fill:rgb(100%,100%,100%);fill-opacity:0.392157;" d="M 14.554688 8.613281 C 13.085938 8.613281 11.90625 9.792969 11.90625 11.261719 L 11.90625 11.589844 C 11.90625 10.125 13.085938 8.945312 14.554688 8.945312 L 57.550781 8.945312 C 59.019531 8.945312 60.199219 10.125 60.199219 11.589844 L 60.199219 11.261719 C 60.199219 9.792969 59.019531 8.613281 57.550781 8.613281 Z M 14.554688 8.613281 "/>
<path style=" stroke:none;fill-rule:nonzero;fill:rgb(12.941177%,12.941177%,12.941177%);fill-opacity:1;" d="M 14.554688 8.25 C 12.988281 8.25 11.71875 9.519531 11.71875 11.085938 L 11.71875 21.007812 C 11.71875 22.574219 12.988281 23.839844 14.554688 23.839844 L 57.550781 23.839844 C 59.117188 23.839844 60.386719 22.574219 60.386719 21.007812 L 60.386719 11.085938 C 60.386719 9.519531 59.117188 8.25 57.550781 8.25 Z M 14.554688 8.625 L 57.550781 8.625 C 58.917969 8.625 60.011719 9.71875 60.011719 11.085938 L 60.011719 21.007812 C 60.011719 22.371094 58.917969 23.464844 57.550781 23.464844 L 14.554688 23.464844 C 13.1875 23.464844 12.09375 22.371094 12.09375 21.007812 L 12.09375 11.085938 C 12.09375 9.71875 13.1875 8.625 14.554688 8.625 Z M 14.554688 8.625 "/>
<path style=" stroke:none;fill-rule:nonzero;fill:rgb(45.882353%,45.882353%,45.882353%);fill-opacity:1;" d="M 5.292969 13.730469 C 3.828125 13.730469 2.644531 14.910156 2.644531 16.375 L 2.644531 53.421875 C 2.644531 54.886719 3.828125 56.066406 5.292969 56.066406 L 58.214844 56.066406 C 59.679688 56.066406 60.859375 54.886719 60.859375 53.421875 L 60.859375 20.34375 L 25.136719 20.34375 C 23.671875 20.34375 22.492188 19.164062 22.492188 17.699219 L 22.492188 13.730469 Z M 5.292969 13.730469 "/>
<path style=" stroke:none;fill-rule:nonzero;fill:url(#linear2);" d="M 5.292969 13.730469 C 3.828125 13.730469 2.644531 14.910156 2.644531 16.375 L 2.644531 53.421875 C 2.644531 54.886719 3.828125 56.066406 5.292969 56.066406 L 58.214844 56.066406 C 59.679688 56.066406 60.859375 54.886719 60.859375 53.421875 L 60.859375 20.34375 L 25.136719 20.34375 C 23.671875 20.34375 22.492188 19.164062 22.492188 17.699219 L 22.492188 13.730469 Z M 5.292969 13.730469 "/>
<path style=" stroke:none;fill-rule:nonzero;fill:rgb(0%,0%,0%);fill-opacity:0.196078;" d="M 5.292969 56.066406 C 3.828125 56.066406 2.644531 54.886719 2.644531 53.421875 L 2.644531 53.089844 C 2.644531 54.558594 3.828125 55.738281 5.292969 55.738281 L 58.214844 55.738281 C 59.679688 55.738281 60.859375 54.558594 60.859375 53.089844 L 60.859375 53.421875 C 60.859375 54.886719 59.679688 56.066406 58.214844 56.066406 Z M 5.292969 56.066406 "/>
<path style=" stroke:none;fill-rule:nonzero;fill:rgb(100%,100%,100%);fill-opacity:0.392157;" d="M 5.292969 13.90625 C 3.828125 13.90625 2.644531 15.085938 2.644531 16.550781 L 2.644531 16.882812 C 2.644531 15.417969 3.828125 14.238281 5.292969 14.238281 L 22.492188 14.238281 L 22.492188 13.90625 Z M 5.292969 13.90625 "/>
<path style=" stroke:none;fill-rule:nonzero;fill:rgb(100%,100%,100%);fill-opacity:0.392157;" d="M 24.972656 20.6875 C 23.507812 20.6875 22.328125 19.507812 22.328125 18.039062 L 22.328125 17.710938 C 22.328125 19.175781 23.507812 20.359375 24.972656 20.355469 L 60.859375 20.355469 L 60.859375 20.6875 Z M 24.972656 20.6875 "/>
<path style=" stroke:none;fill-rule:nonzero;fill:rgb(12.941177%,12.941177%,12.941177%);fill-opacity:1;" d="M 5.292969 13.542969 C 3.726562 13.542969 2.457031 14.808594 2.457031 16.375 L 2.457031 53.421875 C 2.457031 54.988281 3.726562 56.253906 5.292969 56.253906 L 58.214844 56.253906 C 59.78125 56.253906 61.046875 54.988281 61.046875 53.421875 L 61.046875 19.96875 L 25.136719 19.96875 C 23.773438 19.96875 22.679688 18.878906 22.679688 17.511719 L 22.679688 13.542969 Z M 5.292969 13.917969 L 22.304688 13.917969 L 22.304688 17.511719 C 22.304688 19.078125 23.570312 20.34375 25.136719 20.34375 L 60.671875 20.34375 L 60.671875 53.421875 C 60.671875 54.785156 59.578125 55.878906 58.214844 55.878906 L 5.292969 55.878906 C 3.925781 55.878906 2.832031 54.785156 2.832031 53.421875 L 2.832031 16.375 C 2.832031 15.011719 3.925781 13.917969 5.292969 13.917969 Z M 5.292969 13.917969 "/>
<path style=" stroke:none;fill-rule:nonzero;fill:rgb(25.882354%,25.882354%,25.882354%);fill-opacity:1;" d="M 31.753906 25.636719 C 27.691406 25.636719 23.902344 26.769531 20.6875 28.738281 L 22.648438 32.195312 C 25.285156 30.554688 28.402344 29.605469 31.753906 29.605469 C 35.101562 29.605469 38.222656 30.554688 40.859375 32.195312 L 42.820312 28.738281 C 39.601562 26.769531 35.816406 25.636719 31.753906 25.636719 Z M 31.753906 33.574219 C 29.117188 33.574219 26.667969 34.339844 24.609375 35.65625 L 26.570312 39.121094 C 28.046875 38.125 29.832031 37.546875 31.753906 37.546875 C 33.675781 37.546875 35.457031 38.125 36.933594 39.121094 L 38.898438 35.65625 C 36.839844 34.339844 34.390625 33.574219 31.753906 33.574219 Z M 31.753906 41.515625 C 30.542969 41.515625 29.429688 41.917969 28.539062 42.597656 L 30.558594 46.160156 C 31.085938 47.085938 32.421875 47.085938 32.945312 46.160156 L 34.964844 42.597656 C 34.078125 41.917969 32.964844 41.515625 31.753906 41.515625 Z M 31.753906 41.515625 "/>
<path style=" stroke:none;fill-rule:nonzero;fill:rgb(0%,0%,0%);fill-opacity:0.235294;" d="M 31.753906 25.636719 C 27.691406 25.636719 23.902344 26.769531 20.6875 28.738281 L 20.898438 29.109375 C 24.066406 27.21875 27.777344 26.132812 31.753906 26.132812 C 35.726562 26.132812 39.4375 27.21875 42.609375 29.109375 L 42.820312 28.738281 C 39.601562 26.769531 35.816406 25.636719 31.753906 25.636719 Z M 31.753906 33.574219 C 29.117188 33.574219 26.667969 34.339844 24.609375 35.65625 L 24.816406 36.023438 C 26.832031 34.785156 29.207031 34.070312 31.753906 34.070312 C 34.300781 34.070312 36.675781 34.785156 38.691406 36.023438 L 38.898438 35.65625 C 36.839844 34.339844 34.390625 33.574219 31.753906 33.574219 Z M 31.753906 41.515625 C 30.542969 41.515625 29.429688 41.917969 28.539062 42.597656 L 28.738281 42.949219 C 29.59375 42.355469 30.632812 42.011719 31.753906 42.011719 C 32.875 42.011719 33.914062 42.355469 34.765625 42.949219 L 34.964844 42.597656 C 34.078125 41.917969 32.964844 41.515625 31.753906 41.515625 Z M 31.753906 41.515625 "/>
<path style=" stroke:none;fill-rule:nonzero;fill:rgb(100%,100%,100%);fill-opacity:0.392157;" d="M 20.898438 29.109375 C 20.828125 29.152344 20.757812 29.191406 20.6875 29.234375 L 22.648438 32.695312 C 25.285156 31.050781 28.402344 30.101562 31.753906 30.101562 C 35.101562 30.101562 38.222656 31.050781 40.859375 32.695312 L 42.820312 29.234375 C 42.75 29.191406 42.679688 29.152344 42.609375 29.109375 L 40.859375 32.199219 C 38.222656 30.554688 35.101562 29.605469 31.753906 29.605469 C 28.402344 29.605469 25.285156 30.554688 22.648438 32.199219 Z M 24.816406 36.023438 C 24.746094 36.066406 24.675781 36.109375 24.609375 36.152344 L 26.570312 39.617188 C 28.046875 38.621094 29.832031 38.042969 31.753906 38.042969 C 33.675781 38.042969 35.457031 38.621094 36.933594 39.617188 L 38.898438 36.152344 C 38.828125 36.109375 38.761719 36.066406 38.691406 36.023438 L 36.933594 39.121094 C 35.457031 38.125 33.675781 37.546875 31.753906 37.546875 C 29.832031 37.546875 28.046875 38.125 26.570312 39.121094 Z M 28.738281 42.949219 C 28.671875 42.996094 28.605469 43.042969 28.539062 43.09375 L 30.558594 46.65625 C 31.085938 47.582031 32.421875 47.582031 32.945312 46.65625 L 34.964844 43.09375 C 34.902344 43.042969 34.835938 42.996094 34.765625 42.949219 L 32.945312 46.160156 C 32.421875 47.085938 31.085938 47.085938 30.558594 46.160156 Z M 28.738281 42.949219 "/>
<path style="fill:none;stroke-width:11.338583;stroke-linecap:round;stroke-linejoin:round;stroke:rgb(12.941177%,12.941177%,12.941177%);stroke-opacity:1;stroke-miterlimit:4;" d="M 960.026483 775.083504 C 837.20356 775.083504 722.647564 809.332204 625.452116 868.854082 L 684.737796 973.371666 C 764.454597 923.770101 858.697571 895.072052 960.026483 895.072052 C 1061.237295 895.072052 1155.598368 923.770101 1235.315169 973.371666 L 1294.600849 868.854082 C 1197.287303 809.332204 1082.849406 775.083504 960.026483 775.083504 Z M 960.026483 1015.0606 C 880.309682 1015.0606 806.261631 1038.207997 744.023477 1078.007348 L 803.309157 1182.76113 C 847.950565 1152.645894 901.921792 1135.167247 960.026483 1135.167247 C 1018.131173 1135.167247 1071.984301 1152.645894 1116.62571 1182.76113 L 1176.029489 1078.007348 C 1113.791335 1038.207997 1039.743284 1015.0606 960.026483 1015.0606 Z M 960.026483 1255.155795 C 923.415804 1255.155795 889.757599 1267.319988 862.831035 1287.869208 L 923.8882 1395.575464 C 939.83156 1423.564919 980.221406 1423.564919 996.046667 1395.575464 L 1057.103832 1287.869208 C 1030.295367 1267.319988 996.637162 1255.155795 960.026483 1255.155795 Z M 960.026483 1255.155795 " transform="matrix(0.0330761,0,0,0.0330761,0,0)"/>
</g>
</svg>

<svg xmlns="http://www.w3.org/2000/svg" width="64pt" height="64pt" viewBox="0 0 64 64"><defs><linearGradient id="a" gradientUnits="userSpaceOnUse" x1="254" y1="233.5" x2="254" y2="254.667" gradientTransform="translate(0 26.878) scale(.12501)"><stop offset="0" stop-opacity=".275"/><stop offset="1" stop-opacity="0"/></linearGradient><radialGradient id="b" gradientUnits="userSpaceOnUse" cx="450.909" cy="189.579" fx="450.909" fy="189.579" r="21.167" gradientTransform="matrix(0 -.15626 -.28128 0 108.23 127.19)"><stop offset="0" stop-opacity=".314"/><stop offset=".222" stop-opacity=".275"/><stop offset="1" stop-opacity="0"/></radialGradient><radialGradient id="c" gradientUnits="userSpaceOnUse" cx="450.909" cy="189.579" fx="450.909" fy="189.579" r="21.167" gradientTransform="matrix(0 .15626 .28128 0 -44.724 -15.055)"><stop offset="0" stop-opacity=".314"/><stop offset=".222" stop-opacity=".275"/><stop offset="1" stop-opacity="0"/></radialGradient><radialGradient id="d" gradientUnits="userSpaceOnUse" cx="450.909" cy="189.579" fx="450.909" fy="189.579" r="21.167" gradientTransform="matrix(0 -.15626 .28128 0 -44.724 127.19)"><stop offset="0" stop-opacity=".314"/><stop offset=".222" stop-opacity=".275"/><stop offset="1" stop-opacity="0"/></radialGradient><radialGradient id="e" gradientUnits="userSpaceOnUse" cx="450.909" cy="189.579" fx="450.909" fy="189.579" r="21.167" gradientTransform="matrix(0 .15626 -.28128 0 108.23 -15.055)"><stop offset="0" stop-opacity=".314"/><stop offset=".222" stop-opacity=".275"/><stop offset="1" stop-opacity="0"/></radialGradient><linearGradient id="f" gradientUnits="userSpaceOnUse" x1="254" y1="-147.5" x2="254" y2="-31.083" gradientTransform="translate(0 26.878) scale(.12501)"><stop offset="0" stop-color="#a4a4a4" stop-opacity="0"/><stop offset="1" stop-color="#fff" stop-opacity=".196"/></linearGradient><linearGradient id="g" gradientUnits="userSpaceOnUse" x1="254" y1="233.5" x2="254" y2="-105.167" gradientTransform="translate(0 26.878) scale(.12501)"><stop offset="0" stop-color="#585858" stop-opacity="0"/><stop offset="1" stop-color="#fafafa" stop-opacity=".196"/></linearGradient><linearGradient id="h" gradientUnits="userSpaceOnUse" x1="254" y1="-147.5" x2="254" y2="233.5" gradientTransform="translate(0 26.878) scale(.12501)"><stop offset="0" stop-color="#a4a4a4" stop-opacity="0"/><stop offset="1" stop-color="#fff" stop-opacity=".196"/></linearGradient></defs><path d="M7.938 56.066h47.628v2.649H7.937zm0 0" fill="url(#a)"/><path d="M55.566 56.066h5.293v-2.644h-5.293zm0 0" fill="url(#b)"/><path d="M7.938 56.066H2.644v2.649h5.292zm0 0" fill="url(#c)"/><path d="M7.938 56.066H2.644v-2.644h5.292zm0 0" fill="url(#d)"/><path d="M55.566 56.066h5.293v2.649h-5.293zm0 0" fill="url(#e)"/><path d="M14.555 8.438H57.55a2.646 2.646 0 0 1 2.648 2.648v9.922a2.645 2.645 0 0 1-2.648 2.644H14.555a2.647 2.647 0 0 1-2.649-2.644v-9.922a2.648 2.648 0 0 1 2.649-2.649zm0 0" fill="#424242"/><path d="M14.555 8.438H57.55a2.646 2.646 0 0 1 2.648 2.648v9.922a2.645 2.645 0 0 1-2.648 2.644H14.555a2.647 2.647 0 0 1-2.649-2.644v-9.922a2.648 2.648 0 0 1 2.649-2.649zm0 0" fill="url(#f)"/><path d="M14.555 8.438a2.64 2.64 0 0 0-2.649 2.648v.328a2.64 2.64 0 0 1 2.649-2.644H57.55a2.64 2.64 0 0 1 2.648 2.644v-.328a2.64 2.64 0 0 0-2.648-2.649zm0 0" fill="#e6e6e6" fill-opacity=".588"/><path d="M14.555 8.25a2.836 2.836 0 0 0-2.836 2.836v9.922a2.832 2.832 0 0 0 2.836 2.832H57.55a2.832 2.832 0 0 0 2.836-2.832v-9.922A2.836 2.836 0 0 0 57.55 8.25zm0 .375H57.55a2.45 2.45 0 0 1 2.46 2.46v9.923a2.45 2.45 0 0 1-2.46 2.457H14.555a2.45 2.45 0 0 1-2.461-2.457v-9.922a2.45 2.45 0 0 1 2.46-2.461zm0 0" fill="#212121"/><path d="M5.293 13.73a2.642 2.642 0 0 0-2.648 2.645v37.047a2.642 2.642 0 0 0 2.648 2.644h52.922a2.639 2.639 0 0 0 2.644-2.644V20.344H25.137a2.639 2.639 0 0 1-2.645-2.645V13.73zm0 0" fill="#616161"/><path d="M5.293 13.73a2.642 2.642 0 0 0-2.648 2.645v37.047a2.642 2.642 0 0 0 2.648 2.644h52.922a2.639 2.639 0 0 0 2.644-2.644V20.344H25.137a2.639 2.639 0 0 1-2.645-2.645V13.73zm0 0" fill="url(#g)"/><path d="M5.293 56.066a2.642 2.642 0 0 1-2.648-2.644v-.332a2.643 2.643 0 0 0 2.648 2.648h52.922a2.64 2.64 0 0 0 2.644-2.648v.332a2.639 2.639 0 0 1-2.644 2.644zm0 0" fill-opacity=".196"/><path d="M5.293 13.73a2.642 2.642 0 0 0-2.648 2.645v.332a2.642 2.642 0 0 1 2.648-2.645h17.2v-.332zm0 0M24.973 20.512a2.64 2.64 0 0 1-2.645-2.649v-.328a2.637 2.637 0 0 0 2.645 2.645h35.886v.332zm0 0" fill="#e6e6e6" fill-opacity=".937"/><path d="M5.293 13.543a2.832 2.832 0 0 0-2.836 2.832v37.047a2.832 2.832 0 0 0 2.836 2.832h52.922a2.83 2.83 0 0 0 2.832-2.832V19.969h-35.91a2.447 2.447 0 0 1-2.457-2.457v-3.969zm0 .375h17.012v3.594a2.83 2.83 0 0 0 2.832 2.832h35.535v33.078a2.449 2.449 0 0 1-2.457 2.457H5.293a2.45 2.45 0 0 1-2.461-2.457V16.375a2.45 2.45 0 0 1 2.461-2.457zm0 0" fill="#212121"/><path d="M31.754 25.781c-5.2 0-9.953 1.856-13.629 4.946l3.375 4.085a15.807 15.807 0 0 1 10.254-3.738c3.914 0 7.492 1.403 10.254 3.738l3.37-4.085a21.087 21.087 0 0 0-13.624-4.946zm0 9.262a11.866 11.866 0 0 0-7.727 2.832l6.403 7.75c1.156 1.324 1.488 1.324 2.644 0l6.403-7.75a11.848 11.848 0 0 0-7.723-2.832zm0 0" fill="#424242"/><path d="M31.754 25.781c-5.2 0-9.953 1.856-13.629 4.946l3.375 4.085a15.807 15.807 0 0 1 10.254-3.738c3.914 0 7.492 1.403 10.254 3.738l3.37-4.085a21.087 21.087 0 0 0-13.624-4.946zm0 9.262a11.866 11.866 0 0 0-7.727 2.832l6.403 7.75c1.156 1.324 1.488 1.324 2.644 0l6.403-7.75a11.848 11.848 0 0 0-7.723-2.832zm0 0" fill="url(#h)"/><path d="M31.754 25.594a21.288 21.288 0 0 0-13.75 4.988l-.14.121 3.609 4.375.148-.125a15.633 15.633 0 0 1 10.133-3.691c3.871 0 7.402 1.386 10.133 3.691l.144.125 3.614-4.375-.145-.121a21.278 21.278 0 0 0-13.746-4.988zm0 .375c5.086 0 9.734 1.797 13.36 4.789L41.98 34.55a16.014 16.014 0 0 0-10.226-3.664 15.998 15.998 0 0 0-10.227 3.664l-3.132-3.793a20.89 20.89 0 0 1 13.359-4.79zm0 8.886c-3 0-5.738 1.083-7.848 2.875l-.14.122 6.52 7.898h.003c.293.336.535.59.766.77.23.18.457.285.699.285.242 0 .469-.106.7-.285.23-.18.472-.434.765-.77l6.523-7.898-.144-.122a12.067 12.067 0 0 0-7.844-2.875zm0 .375c2.84 0 5.433 1.004 7.457 2.672l-6.277 7.602c-.286.328-.52.566-.711.719-.196.152-.34.207-.47.207-.132 0-.276-.055-.468-.207-.195-.153-.426-.391-.715-.72l-6.273-7.6a11.667 11.667 0 0 1 7.457-2.673zm0 0" fill="#212121"/></svg>
